X:1
T: The Lark in the Morning
P:O'Neill's version
R:Jig
Q:180
K:Em
M:6/8
L:1/16
B,2|E4c2 B2G2E2|D4d2 A2F2D2|E4c2 B2A2F2|G2F2E2 e4ef|g2f2e2 d2c2B2|ABA2G2 F2E2D2|E2F2G2 A2B2c2|B2G2F2 E4B,2|
E4c2 B2G2E2|D4d2 A2F2D2|E4c2 B2A2F2|G2F2E2 e4ef|g2f2e2 d2c2B2|ABA2G2 F2E2D2|E2F2G2 A2B2c2|B2G2F2 E4B2|
e2B2e2 g2b2e2|d2A2d2 f2a2f2|e2B2e2 g2b2e2|f2a2f2 g2b2e2|f2a2f2 g2f2e2|d2c2d2 A2F2D2|E2F2G2 A2B2c2|B2G2F2 E4B2|
e2B2e2 g2b2e2|d2A2d2 f2a2f2|e2B2e2 g2b2e2|f2a2f2 g2b2e2|f2a2f2 g2f2e2|d2c2d2 A2F2D2|E2F2G2 A2B2c2|B2G2F2 E4||
